!!!COM: Stadler, Maximilian
!!!CDT: 1748///-1833///
!!!COA: Haydn, Joseph
!!!OTL@@IT: Gioco filarmonico
!!!OTL@EN: Philharmonic Joke
!!!OTA@@IT: o sia maniera facile per comporre un infinito numero de minuetti e trio anche senza sapere il contrapunto
!!!OTA@EN: or the Art of Composing an Infinite Number of Minutes Without the Least Knowledge of Counterpoint
!!!PDT: 1781///
!!!PPR: Artaria
!!!SML: Gesellschaft der Musikfreundes, Vienna
!!!PPR2: Luigi Marescalchi
!!!PPP2: Napoli
!!!PDT2: 1790///
**kern	**kern	**kern
*Icello	*Ivioln	*Ivioln
*>[A,A,B,B,A]	*>[A,A,B,B,A]	*>[A,A,B,B,A]
*>norep[A,B]	*>norep[A,B]	*>norep[A,B]
*>A	*>A	*>A
*k[]	*k[]	*k[]
*M3/4	*M3/4	*M3/4
*MM120	*MM120	*MM120
!!section:  I
!!measure:  A
!!diceroll: 10
=98	=98	=98
4C	4e	4cc
4E	4g	16b
.	.	8.cc
4E	4g	16b
.	.	8.cc
!!section:  I
!!measure:  B
!!diceroll: 9
=84	=84	=84
4r	8.ee	8.gg
.	16ff	16aa
4G	8.dd	8.ff
.	16ee	16gg
4c	4cc	4ee
!!section:  I
!!measure:  C
!!diceroll: 2
=141	=141	=141
4C	2.r	12e
.	.	12g
.	.	12cc
4c	.	12ee
.	.	12gg
.	.	12ff
4C	.	12ee
.	.	12dd
.	.	12cc
!!section:  I
!!measure:  D
!!diceroll: 11
=61	=61	=61
4r	4e	4g
4GG	4d	4f
4C	4c	4e
!!section:  I
!!measure:  E
!!diceroll: 3
=146	=146	=146
2.C	4r	8r
.	.	8f
.	4e	8g#
.	.	8a
.	4a	8cc
.	.	8ee
!!section:  I
!!measure:  F
!!diceroll: 6
=97	=97	=97
4BB	4d	16r
.	.	16d
.	.	16e
.	.	16f#
4r	4r	16g
.	.	16a
.	.	16b
.	.	16cc
4r	4r	16dd
.	.	16ee
.	.	16ff#
.	.	16gg
!!section:  I
!!measure:  G
!!diceroll: 6
=36	=36	=36
4D	8.cc	8.ee
.	16a	16cc
4E	4g	4b
4DD	4f#	4a
!!section:  I
!!measure:  H
!!diceroll: 5
=100	=100	=100
8G	2.g	2.g
8D	.	.
8BB	.	.
8D	.	.
4GG	.	.
*>B	*>B	*>B
!!section:  II
!!measure:  A
!!diceroll: 9
=120	=120	=120
4r	4r	8b-
.	.	8a
4C#	4e	4.a
4C#	4e	.
.	.	8aa
!!section:  II
!!measure:  B
!!diceroll: 7
=71	=71	=71
8F	4dd	8aa
8F	.	8a
8E	4cc#	8gg
8E	.	8a
8D	4dd	4ff
8D	.	.
!!section:  II
!!measure:  C
!!diceroll: 3
=126	=126	=126
8GG	2dd	2ff
8G	.	.
8BB	.	.
8G	.	.
8GG	8cc	8ee
8G	8b	8dd
!!section:  II
!!measure:  D
!!diceroll: 9
=166	=166	=166
8E	8cc	8cc
8G	8g	8g
8F	8f	8f
8E	8e	8e
8D	8d	8d
8C	8c	8c
!!section:  II
!!measure:  E
!!diceroll: 9
=51	=51	=51
4F	2.c	8.a
.	.	16cc
4A	.	8.ff
.	.	16cc
4F	.	4aa
!!section:  II
!!measure:  F
!!diceroll: 5
=160	=160	=160
4r	4r	12f
.	.	12ff
.	.	12dd
4G	4d	12b
.	.	12dd
.	.	12f
4A	4c	4e
!!section:  II
!!measure:  G
!!diceroll: 9
=72	=72	=72
4F	8b	8dd
.	8ff	8aa
4G	8ee	8gg
.	8dd	8ff
4GG	8cc	8ee
.	8b	8dd
!!section:  II
!!measure:  H
!!diceroll: 8
=172	=172	=172
4C	2.cc	2.cc
8.GG	.	.
16EE	.	.
4CC	.	.
*-	*-	*-
!!!END: 2004/11/01/
